packages/foundations/assets/icons/functional/images/buildings/market_20.svg

<svg width="20" height="20" viewBox="0 0 20 20" fill="none" xmlns="http://www.w3.org/2000/svg">
<g clip-path="url(#clip0_184_206)">
<path fill-rule="evenodd" clip-rule="evenodd" d="M3.00129 18C2.73607 18 2.48172 17.8946 2.29418 17.7071C2.10665 17.5196 2.00129 17.2652 2.00129 17C2.00129 16.7348 2.10665 16.4804 2.29418 16.2929C2.48172 16.1054 2.73607 16 3.00129 16V9.595C2.57727 9.18981 2.27118 8.67713 2.11567 8.11163C1.96017 7.54613 1.96107 6.94903 2.11829 6.384L2.84229 3.516C3.03829 2.73 3.76029 2 4.78129 2H15.2173C16.0833 2 16.9203 2.578 17.1583 3.516L17.8953 6.384C17.9653 6.657 18.0003 6.946 18.0003 7.25C18.0007 7.68801 17.9123 8.12156 17.7404 8.52445C17.5685 8.92733 17.3168 9.29118 17.0003 9.594V16C17.2655 16 17.5199 16.1054 17.7074 16.2929C17.8949 16.4804 18.0003 16.7348 18.0003 17C18.0003 17.513 17.5983 18 17.0003 18H3.00129ZM15.0013 14H5.00129V16H15.0013V14ZM13.1673 10.087C12.6836 10.3575 12.1385 10.4996 11.5843 10.4996C11.03 10.4996 10.485 10.3575 10.0013 10.087C9.51832 10.3595 8.97283 10.5018 8.41829 10.5C7.85629 10.5 7.32829 10.362 6.83429 10.087C6.27592 10.398 5.63865 10.5384 5.00129 10.491V12H15.0013V10.5C14.3113 10.532 13.7013 10.395 13.1673 10.087ZM15.2173 4H4.78329L4.04029 7.01C4.02029 7.1 4.00229 7.155 4.00229 7.25C4.00229 7.94 4.56229 8.5 5.25229 8.5C5.75429 8.5 6.28229 8.15 6.83529 7.45C7.41029 8.15 7.93829 8.5 8.41929 8.5C8.89929 8.5 9.42729 8.15 10.0023 7.45C10.5983 8.15 11.1263 8.5 11.5853 8.5C12.0453 8.5 12.5723 8.15 13.1673 7.45C13.7503 8.15 14.2783 8.5 14.7523 8.5C15.4423 8.5 16.0023 7.94 16.0023 7.25C16.0023 7.146 16.0033 7.108 15.9793 7.01L15.2183 4H15.2173Z" fill="#1A1C1F"/>
</g>
<defs>
<clipPath id="clip0_184_206">
<rect width="20" height="20" fill="white"/>
</clipPath>
</defs>
</svg>

<svg xmlns="http://www.w3.org/2000/svg" width="20" height="20" fill="none"><g clip-path="url(#a)"><path fill="#1A1C1F" fill-rule="evenodd" d="M3.001 18a1 1 0 0 1 0-2V9.595a3.24 3.24 0 0 1-.883-3.211l.724-2.868C3.038 2.73 3.76 2 4.782 2h10.435c.866 0 1.703.578 1.941 1.516l.737 2.868q.105.41.105.866a3.24 3.24 0 0 1-1 2.344V16a1 1 0 0 1 1 1c0 .513-.402 1-1 1zm12-4h-10v2h10zm-1.834-3.913a3.24 3.24 0 0 1-3.166 0 3.2 3.2 0 0 1-1.583.413q-.843 0-1.584-.413a3.27 3.27 0 0 1-1.833.404V12h10v-1.5q-1.034.049-1.834-.413M15.217 4H4.783L4.04 7.01c-.02.09-.038.145-.038.24 0 .69.56 1.25 1.25 1.25q.753 0 1.583-1.05Q7.697 8.5 8.42 8.5q.72 0 1.583-1.05.894 1.05 1.583 1.05.69 0 1.582-1.05.874 1.05 1.585 1.05c.69 0 1.25-.56 1.25-1.25 0-.104.001-.142-.023-.24L15.22 4z" clip-rule="evenodd"/></g><defs><clipPath id="a"><path fill="#fff" d="M0 0h20v20H0z"/></clipPath></defs></svg>
